svg/300/outlined/format_h5-fill.svg

<svg xmlns="http://www.w3.org/2000/svg" width="48" height="48" viewBox="0 -960 960 960"><path d="M140.001-290.001v-379.998h45.384v167.307h194.616v-167.307h45.384v379.998h-45.384v-167.307H185.385v167.307h-45.384Zm394.614 0v-45.383h227.691q5.385 0 8.847-3.462 3.462-3.462 3.462-8.847V-445q0-5.385-3.462-8.846-3.462-3.462-8.847-3.462H534.615v-212.691h285.384v45.383h-240v121.924h182.307q23.5 0 40.596 17.096Q819.999-468.5 819.999-445v97.307q0 23.5-17.097 40.596-17.096 17.096-40.596 17.096H534.615Z"/></svg>

<svg xmlns="http://www.w3.org/2000/svg" width="48" height="48" viewBox="0 -960 960 960"><path d="M140-290v-380h45.39v167.31H380V-670h45.39v380H380v-167.31H185.39V-290H140Zm394.61 0v-45.38h227.7q5.38 0 8.84-3.47 3.46-3.46 3.46-8.84V-445q0-5.38-3.46-8.85-3.46-3.46-8.84-3.46h-227.7V-670H820v45.38H580v121.93h182.31q23.5 0 40.59 17.09Q820-468.5 820-445v97.31q0 23.5-17.1 40.59-17.09 17.1-40.59 17.1h-227.7Z"/></svg>
